svgs/light/brazilian-real-sign.svg

<svg xmlns="http://www.w3.org/2000/svg" viewBox="0 0 512 512"><!--! Font Awesome Pro 6.4.0 by @fontawesome - https://fontawesome.com License - https://fontawesome.com/license (Commercial License) Copyright 2023 Fonticons, Inc. --><path d="M400 0c8.8 0 16 7.2 16 16V64.5c16.8 1.4 33.3 5.4 48.9 11.9L478.2 82c8.2 3.4 12 12.8 8.6 20.9s-12.8 12-20.9 8.6l-13.3-5.6C436.9 99.4 420 96 403 96H387.3c-37.2 0-67.3 30.1-67.3 67.3c0 28.6 18.1 54.1 45.1 63.6l80.3 28c39.9 13.9 66.6 51.5 66.6 93.8c0 53.7-42.7 97.5-96 99.3V496c0 8.8-7.2 16-16 16s-16-7.2-16-16V447.5c-22.1-1.8-43.5-8.6-62.6-20l-25.6-15.3c-7.6-4.5-10-14.4-5.5-21.9s14.4-10.1 21.9-5.5l25.6 15.3c17.4 10.4 37.3 15.9 57.5 15.9h17.3c37.2 0 67.3-30.1 67.3-67.3c0-28.6-18.1-54.1-45.1-63.6l-80.3-28c-39.9-13.9-66.6-51.5-66.6-93.8c0-53.7 42.7-97.5 96-99.3V16c0-8.8 7.2-16 16-16zM0 80C0 53.5 21.5 32 48 32h64c79.5 0 144 64.5 144 144c0 65.6-43.9 121-103.9 138.3l54.8 144c3.1 8.3-1 17.5-9.3 20.6s-17.5-1-20.6-9.3L119.9 319.8c-2.6 .1-5.3 .2-7.9 .2H32V464c0 8.8-7.2 16-16 16s-16-7.2-16-16V304 80zM32 288h80c61.9 0 112-50.1 112-112s-50.1-112-112-112H48c-8.8 0-16 7.2-16 16V288z"/></svg>

<svg xmlns="http://www.w3.org/2000/svg" viewBox="0 0 512 512"><!--! Font Awesome Pro 6.3.0 by @fontawesome - https://fontawesome.com License - https://fontawesome.com/license (Commercial License) Copyright 2023 Fonticons, Inc. --><path d="M400 0C408.8 0 416 7.164 416 16V64.53C432.8 65.89 449.3 69.9 464.9 76.43L478.2 82.01C486.3 85.42 490.2 94.8 486.8 102.9C483.3 111.1 473.1 114.9 465.8 111.5L452.5 105.9C436.9 99.38 420 95.1 403 95.1H387.3C350.1 95.1 320 126.1 320 163.3C320 191.9 338.1 217.4 365.1 226.9L445.4 254.9C485.3 268.8 512 306.5 512 348.7C512 402.4 469.3 446.2 416 447.9V496C416 504.8 408.8 512 400 512C391.2 512 384 504.8 384 496V447.5C361.9 445.8 340.5 438.1 321.4 427.6L295.8 412.2C288.2 407.7 285.7 397.8 290.3 390.3C294.8 382.7 304.6 380.2 312.2 384.7L337.9 400.1C355.2 410.5 375.1 416 395.4 416H412.7C449.9 416 480 385.9 480 348.7C480 320.1 461.9 294.6 434.9 285.1L354.6 257.1C314.7 243.2 288 205.5 288 163.3C288 109.6 330.7 65.8 384 64.05V16C384 7.164 391.2 0 400 0L400 0zM.0003 80C.0003 53.49 21.49 32 48 32H112C191.5 32 256 96.47 256 176C256 241.6 212.1 296.1 152.1 314.3L206.1 458.3C210.1 466.6 205.1 475.8 197.7 478.1C189.4 482.1 180.2 477.1 177 469.7L119.9 319.8C117.3 319.9 114.7 320 112 320H32V464C32 472.8 24.84 480 16 480C7.164 480 0 472.8 0 464L.0003 80zM32 288H112C173.9 288 224 237.9 224 176C224 114.1 173.9 64 112 64H48C39.16 64 32 71.16 32 80V288z"/></svg>
